X:1
T:Title
%%score { ( 1 3 ) | ( 2 4 5 ) }
L:1/8
M:4/4
K:C
V:1 treble nm="Grand Piano"
V:3 treble 
V:2 bass 
V:4 bass 
V:5 bass 
V:1
 z4 z2[Q:1/4=110] [CE]>[DF] | [EG]2 [EG]2 [FA]2 [_E^F]2 | [EG]4 [G,CE]4 | G4 z4 | %4
 [CEG]6 [G,CE]>[G,DF] | [EG]2 [EG]2 [FA]2 [_E^F]2 | [EG]4 [Ec]4 | B4 A2 [FB]2 | [Ec]6 [Ec]>[Ec] | %9
 B2 B2 d2 d2 | [Ec]4 [EG]2 [Ec]>[Ec] | [DB]2 [GB]2 [^FA]2 [Fd]2 | d4 G2 G>G | %13
 [Ec]2 [Ec]2 [Ge]2 [Ge]2 | d4 c4 | B4 z4 |[M:3/4] [Ec]6 |[M:1/4] [Ec][Ec] |[M:4/4] B2 B2 d2 d2 | %19
 [Ec]4 [EG]2 [Ec][CGB] | z4 z2 ^F2 | d6 GG | [Ec][Ec][Ec][Fd] [Ge]2 [Ec][GB] | %23
[M:9/8] AAA B c2- ccA |[M:4/4] GGcc B2 d2 |[M:3/4] [Ec]6 |] %26
V:2
 z4 z2 [C,G,]>[C,G,] | [C,C]2 [C,C]2 [C,C]2 [C,C]2 | [C,C]4 C,4 | D,4 B,,2 G,,2 | C,6 C,>C, | %5
 [C,C]2 [C,C]2 [C,C]2 [C,C]2 | [C,C]4 [C,G,]4 | G,6 z2 | [C,G,]6 [C,G,]>[C,G,] | %9
 [G,D]2 [G,D]2 [G,B,F]2 [G,B,F]2 | [C,C]4 [C,C]2 [C,G,]>[C,G,] | [D,G,]2 [D,D]2 [D,C]2 [D,A,]2 | %12
 [G,B,G]4 [G,B,F]2 [G,B,F]>[G,B,F] | [C,C]2 [C,G,]2 [C,C]2 [E,C]2 | z4 C4 | z8 |[M:3/4] [C,G,]6 | %17
[M:1/4] [C,G,][C,C] |[M:4/4][K:treble] [G,DF]2 [G,DF]2 [G,B,F]2 [G,B,F]2 | [C,C]4 [C,C]2 [C,C]E, | %20
 F,2 F,2 D,2 z A, | [G,B,F]6 [G,B,F][G,B,F] | [C,C][C,C][C,C][C,C] [C,C]2 [C,C][E,C] | %23
[M:9/8] [F,CF][F,CF][F,CF] [F,B,F] [F,A,F]2- [F,A,F][^F,A,_E][F,CE] | %24
[M:4/4][K:treble] [G,CE][G,CE][G,E][G,E] [G,D]2 [G,F]2 |[M:3/4][K:bass] [C,G,]6 |] %26
V:3
 x8 | x8 | x8 | [G,F]4- [G,FA]2 [B,FG]2 | x8 | x8 | x8 | F6 z2 | x8 | x8 | x8 | x8 | x8 | x8 | %14
 z2 ^G,2 z2 G2 | F4- [FA]2 [FB]2 |[M:3/4] x6 |[M:1/4] x2 |[M:4/4] x8 | x8 | %20
 [CFA]2 [CFA]2 [C^FA]2 [B,B]c | x8 | x8 |[M:9/8] x9 |[M:4/4] x8 |[M:3/4] x6 |] %26
V:4
 x8 | x8 | x8 | x8 | x8 | x8 | x8 | D,4 B,,2 [G,,G,]2 | x8 | x8 | x8 | x8 | x8 | x8 | %14
 [B,F]4 [A,E]2 E,2 | D,4 B,,2 [G,,G,]2 |[M:3/4] x6 |[M:1/4] x2 |[M:4/4][K:treble] x8 | x8 | %20
 z4 z2 D,2 | x8 | x8 |[M:9/8] x9 |[M:4/4][K:treble] x8 |[M:3/4][K:bass] x6 |] %26
V:5
 x8 | x8 | x8 | x8 | x8 | x8 | x8 | x8 | x8 | x8 | x8 | x8 | x8 | x8 | G,8- | G,6 z2 |[M:3/4] x6 | %17
[M:1/4] x2 |[M:4/4][K:treble] x8 | x8 | x8 | x8 | x8 |[M:9/8] x9 |[M:4/4][K:treble] x8 | %25
[M:3/4][K:bass] x6 |] %26

